!!!COM: Schiørring, Niels
!!!CDT: 1743-1798
!!!OPR@@DA: Choral-Bog
!!!ONM: 22
!!!OTL@@DA: Fryd dig du Chriſti Brud
**kern	**fb	**kern	**kern	**kern	**kern	**kern	**kern	**kern
*part6	*part6	*part6	*part5	*part5	*part4	*part3	*part2	*part1
*staff8	*	*staff7	*staff6	*staff5	*staff4	*staff3	*staff2	*staff1
*clefF4	*	*clefC1	*clefF4	*clefC1	*clefF4	*clefC4	*clefC3	*clefC1
*mclefF4	*	*mclefG2	*mclefF4	*mclefG2	*mclefF4	*mclefGv2	*mclefG2	*mclefG2
*k[f#]	*	*k[f#]	*k[f#]	*k[f#]	*k[f#]	*k[f#]	*k[f#]	*k[f#]
*G:	*	*G:	*G:	*G:	*G:	*G:	*G:	*G:
*M4/4	*	*M4/4	*M4/4	*M4/4	*M4/4	*M4/4	*M4/4	*M4/4
*met(c)	*	*met(c)	*met(c)	*met(c)	*met(c)	*met(c)	*met(c)	*met(c)
*MM180	*	*MM180	*MM180	*MM180	*MM180	*MM180	*MM180	*MM180
*	*above	*	*	*	*	*	*	*
*	*slash	*	*	*	*	*	*	*
*	*	*	*^	*^	*	*	*	*
=1	=1	=1	=1	=1	=1	=1	=1	=1	=1	=1
2E	.	2e	2G	2E	2e	2B	2E	2G	2B	2e
=2	=2	=2	=2	=2	=2	=2	=2	=2	=2	=2
2G	6	2e	2B	2G	2e	2e	2G	2B	2B	2e
2D#X	6	2f#	2ryy	2D#X	2B	2B	2D#X	2B	2f#	2f#
=3	=3	=3	=3	=3	=3	=3	=3	=3	=3	=3
2E	.	2g	2B	2E	2g	1e	2E	2B	2e	2g
2C	6	2a	2c	2C	2a	.	2C	2e	2e	2a
=4	=4	=4	=4	=4	=4	=4	=4	=4	=4	=4
2BB	#	2b	2F#	2BB	2b	2d#X	2BB	2d#X	2f#	2b
2GG	.	2b	2ryy	2GG	2B	2dn	2GG	2d	2g	2b
=5	=5	=5	=5	=5	=5	=5	=5	=5	=5	=5
2BB	6	2b	1ryy	2BB	2d	2g	2BB	2d	2g	2b
2D	8	2a	.	2D	4d	[2f#	2D	(4d	[2f#	2a
.	7	.	.	.	4c	.	.	4c)	.	.
=6	=6	=6	=6	=6	=6	=6	=6	=6	=6	=6
2E	9	2g	1ryy	2E	2B	2f#]	2E	2B	2f#]	2g
2AA#X	7 5	2g	.	2AA#X	2c#X	2e	2AA#X	2c#X	2e	2g
=7	=7	=7	=7	=7	=7	=7	=7	=7	=7	=7
2BB	#	2f#	2F#	2BB	2f#	2d#X	2BB	2F#	2d#X	2f#
2BB	.	2f#	2B	2BB	2f#	2d#	2BB	2B	2d#	2f#
=8	=8	=8	=8	=8	=8	=8	=8	=8	=8	=8
2E	.	2g	2B	2E	2g	2e	2E	2B	2e	2g
2D	.	2a	2dni	2Dni	2a	2f#	2D	2d	2f#	2a
=9	=9	=9	=9	=9	=9	=9	=9	=9	=9	=9
2G	.	2b	2B	2G	2b	2d	2G	2d	2g	2b
2E	.	2b	[2G	2E	2b	2e	2E	2e	[2g	2b
=10	=10	=10	=10	=10	=10	=10	=10	=10	=10	=10
2C	6 5	1a	2G]	2C	1a	2e	(2C	(2e	(2g]	1a
2D	.	.	2F#	2D	.	2d	2D)	2d)	2f#)	.
=11	=11	=11	=11	=11	=11	=11	=11	=11	=11	=11
2G	.	2b	2G	2G	2b	2d	2G	2d	2g	2b
2GG	.	2b	2G	2GG	2b	2d	2GG	2d	2d	2b
=12	=12	=12	=12	=12	=12	=12	=12	=12	=12	=12
4C	.	2g	2G	4C	2g	4e	(4C	2c	2e	2g
4BB	.	.	.	4BB	.	4d	4BB)	.	.	.
2AA	6	2a	2F#	2AA	2a	2c	2AA	2c	2f#	2a
=13	=13	=13	=13	=13	=13	=13	=13	=13	=13	=13
2GG	.	2b	2G	2GG	2b	2d	2GG	2d	2g	2b
2BB	6	2b	[2G	2BB	2b	2d	2BB	2d	[2g	2b
=14	=14	=14	=14	=14	=14	=14	=14	=14	=14	=14
2C	6 5	1a	2G]	2C	1a	2e	(2C	(2e	(2g]	1a
2D	.	.	4F#	2D	.	2d	2D)	4d	2f#)	.
.	.	.	4c	.	.	.	.	4c)	.	.
=15	=15	=15	=15	=15	=15	=15	=15	=15	=15	=15
2GG	.	2g	1ryy	2GG	2B	2d	2GG	2B	2g	2g
2G	.	2b	.	2G	2d	2g	2G	2d	2g	2b
=16	=16	=16	=16	=16	=16	=16	=16	=16	=16	=16
2F#	6	2dd	1ryy	2F#	1d	2a	2F#	2d	2a	2dd
2G	.	2b	.	2G	.	2g	2G	2d	2g	2b
=17	=17	=17	=17	=17	=17	=17	=17	=17	=17	=17
2D#X	5	2b	1ryy	2D#X	2f#	2a	2D#X	2f#	2a	2b
2E	.	2b	.	2E	2e	2g	2E	2e	2g	2b
=18	=18	=18	=18	=18	=18	=18	=18	=18	=18	=18
2C#X	5	1a	1ryy	2C#X	2e	1g	(2C#X	(2e	1g	1a
2AA	7 #	.	.	2AA	2c#X	.	2AA)	2c#X)	.	.
=19	=19	=19	=19	=19	=19	=19	=19	=19	=19	=19
2D	.	2a	2ryy	2D	2d	2f#	2D	2d	2f#	2a
2D	8	2a	4d	2D	2a	2f#	2D	(4d	2f#	2a
.	n7	.	4cni	.	.	.	.	4ci)	.	.
=20	=20	=20	=20	=20	=20	=20	=20	=20	=20	=20
2D#X	6	2b	2B	2D#X	2b	2f#	2D#X	2B	2f#	2b
2BB	7 #	2a	2ryy	2BB	2d#X	2f#	2BB	2d#X	2f#	2a
=21	=21	=21	=21	=21	=21	=21	=21	=21	=21	=21
2C	.	2g	1ryy	2C	2e	2e	2C	2e	2e	2g
2AA	.	2a	.	2AA	2c	[2e	2AA	2c	[2e	2a
=22	=22	=22	=22	=22	=22	=22	=22	=22	=22	=22
1BB	4	1f#	2B	1BB	1f#	2e]	1BB	(2B	(2e]	1f#
.	#	.	2A	.	.	2d#X	.	2A)	2d#X)	.
=23	=23	=23	=23	=23	=23	=23	=23	=23	=23	=23
2E	.	2e	2G	2E	2e	2B	2E	2G	2e	2e
*	*	*	*v	*v	*	*	*	*	*	*
*	*	*	*	*v	*v	*	*	*	*
==	==	==	==	==	==	==	==	==
*-	*-	*-	*-	*-	*-	*-	*-	*-
!!!system-decoration: {(s1,s2,s3,s4)}{(s5,s6)}{(s7,s8)}
!!!RDF**kern: i = editorial accidental
!!!RDF**kern: > = above
!!!RDF**kern: < = below
!!!AGN: chorale
!!!EED: Derek Remeš
!!!EED2: Victor Phan
!!!END: 2023/11/28
!!!ENC: Wolfgang Drescher
!!!EEV: 2023/12/11
!!!title: @{ONM}. @{OTL}
!!!verovio: mnumInterval 1